svgs/sharp-duotone-solid/object-group.svg

<svg xmlns="http://www.w3.org/2000/svg" viewBox="0 0 576 512"><!--! Font Awesome Pro 7.1.0 by @fontawesome - https://fontawesome.com License - https://fontawesome.com/license (Commercial License) Copyright 2025 Fonticons, Inc. --><path opacity=".4" fill="currentColor" d="M0 0l0 128 32 0 0 256-32 0 0 128 128 0 0-32 320 0 0 32 128 0 0-128-32 0 0-256 32 0 0-128-128 0 0 32-320 0 0-32-128 0zM96 96l384 0 0 320-384 0 0-320z"/><path fill="currentColor" d="M304 144l0 128-160 0 0-128 160 0zM256 368l0-48 96 0 0-96 80 0 0 144-176 0z"/></svg>

<svg xmlns="http://www.w3.org/2000/svg" viewBox="0 0 576 512"><!--! Font Awesome Pro 6.6.0 by @fontawesome - https://fontawesome.com License - https://fontawesome.com/license (Commercial License) Copyright 2024 Fonticons, Inc. --><defs><style>.fa-secondary{opacity:.4}</style></defs><path class="fa-secondary" d="M0 0L0 128l32 0 0 256L0 384 0 512l128 0 0-32 320 0 0 32 128 0 0-128-32 0 0-256 32 0L576 0 448 0l0 32L128 32l0-32L0 0zM96 96l384 0 0 320L96 416 96 96z"/><path class="fa-primary" d="M320 128l-192 0 0 160 192 0 0-160zM256 384l192 0 0-160-96 0 0 64 0 32-32 0-64 0 0 64z"/></svg>
